!!!!SEGMENT: pl-sa--l-1643--021_anonim--multae-filiae-congregaverunt-divitias.krn
!!!cenid: 16xx:1376
!!!COM: Anonim
!!!COM-rismID:
!!!CDT:
!!!CNT:
!!!OTL: Multae filiae congregaverunt divitias
!!!PDT:
!!!AGN: Sacred
!!!SMS-siglum: PL-SA
!!!SMS-shelfmark: L 1643
!!!SMS-shelfwork: 021 W
!!!SMS-variant:
!!!SMS-altvar:
!!!NIFC-rismSourceID: 1001064621
!!!NIFC-islandoraID:
!!!URL-pdf-islandora:
!!!URL-scan:
!!!ONB-nifc: UWAGA: 8 ksiąg. Primi chori: 1mus Cantus (x), C 2dus (44-45), C 3tius (x), Bassus (x); Secondi chori: Primus Cantus (x), C 2dus (x), Altus (x), Bassus (93-94). UWAGA: metrum 2/2 i 3/2.Nie dodawać pustych linii, chyba że w rękopisie pojawiają się dodatkowe oznaczenia dotyczące pełnej obsady (a 4, a 8 itp.)
!!!AIN: 2 empty
!!!key:
**kern	**text	**kern	**text
*part2	*part2	*part1	*part1
*staff2	*staff2	*staff1	*staff1
*Iempty	*	*Iempty	*
*I"Baſsus 2di Chori	*	*I"Cantus 2dus Primi Chori.	*
*clefC3	*	*clefC1	*
*k[]	*	*k[]	*
*c:	*	*c:	*
*M2/2	*	*M2/2	*
*met(C|)	*	*met(C|)	*
=1-	=1-	=1-	=1-
00r	.	0r	.
=2-	=2-	=2-	=2-
.	.	.	.
=3-	=3-	=3-	=3-
.	.	2r	.
.	.	2dd\	Mul-
=4-	=4-	=4-	=4-
.	.	1a	-te
=5-	=5-	=5-	=5-
00r	.	2.b\	fi-
.	.	4cc\	-li-
=6-	=6-	=6-	=6-
.	.	1dd	-ae
=7-	=7-	=7-	=7-
.	.	2.g/	fi-
.	.	4a\	-li-
=8-	=8-	=8-	=8-
.	.	1b	-ae
=9-	=9-	=9-	=9-
1r	.	00r	.
=10-	=10-	=10-	=10-
2r	.	.	.
1g\	Mul-	.	.
=11-	=11-	=11-	=11-
.	.	.	.
2f\	-te	.	.
=12-	=12-	=12-	=12-
2.e\	fi-	.	.
4e\	-li-	.	.
=13-	=13-	=13-	=13-
1d	-ae	4r	.
.	.	4a\	con-
.	.	4a\	-gre-
.	.	4a\	-ga-
=14-	=14-	=14-	=14-
4r	.	2cc\	-ue-
4c/	con-	.	.
4c/	-gre-	2cc\	-runt
4c/	-ga-	.	.
=15-	=15-	=15-	=15-
2G/	-ue-	4r	.
.	.	4b\	con-
2G/	-runt	4b\	-gre-
.	.	4b\	-ga-
=16-	=16-	=16-	=16-
4r	.	0cc	-ue-
4c/	con-	.	.
4c/	-gre-	.	.
4c/	-ga-	.	.
=17-	=17-	=17-	=17-
1f	-ue-	.	.
=18-	=18-	=18-	=18-
2c/	-runt	2cc\	-runt
2c/	di-	2cc\	di-
=19-	=19-	=19-	=19-
2.g\	-ui-	2.b\	-ui-
4g\	-ti-	4b\	-ti-
=20-	=20-	=20-	=20-
*custos:c	*	*custos:c	*
1c	-as	1cc	-as
!LO:LB:g=original	!	!LO:LB:g=original	!
=21||-	=21||-	=21||-	=21||-
*M3/2	*	*M3/2	*
2c/	Tu	2cc\	Tu
2c/	ſu-	2cc\	su-
2g\	-per	2b\	-per
=22-	=22-	=22-	=22-
2.c/	greſ-	2.cc\	gres-
4c/	-sa	4cc\	-sa
2G/	es	2b\	es
=23-	=23-	=23-	=23-
2c/	u-	2cc\	u-
2c/	-ni-	2cc\	-ni-
2g\	-uer-	2b\	-uer-
=24-	=24-	=24-	=24-
1.c	-sas	1.cc	-sas
=25-	=25-	=25-	=25-
2c/	Tu	2cc\	tu
2c/	ſu-	2cc\	su-
2f\	-per	2cc\	-per
=26-	=26-	=26-	=26-
2.c/	greſ-	2.cc\	gres-
4c/	-sa	4cc\	-sa
2c/	es	2cc\	es
=27-	=27-	=27-	=27-
2c/	u-	2cc\	u-
2c/	-ni-	2cc\	-ni-
2g\	-uer-	2b\	-uer-
=28-	=28-	=28-	=28-
*custos:g	*	*	*
1.c	-sas	1.cc	-sas
!LO:LB:g=original	!	!	!
=29||-	=29||-	=29||-	=29||-
*M2/2	*	*M2/2	*
*met(C|)	*	*met(C|)	*
*	*	*custos:cc	*
2g\	fa-	2dd\	Fal-
!	!	!LO:LB:g=original	!
2c\	-lax	2cc\	-lax
=30-	=30-	=30-	=30-
2.g\	gra-	2.b\	gra-
4g\	-ti-	4b\	-ti-
=31-	=31-	=31-	=31-
4d\	-a	4a\	-a
4r	.	4r	.
2r	.	2r	.
=32-	=32-	=32-	=32-
0r	.	0r	.
=33-	=33-	=33-	=33-
.	.	.	.
=34-	=34-	=34-	=34-
2r	.	2r	.
4c/	fa-	4cc\	fal-
4g\	-lax	4b\	-lax
=35-	=35-	=35-	=35-
2.c/	gra-	2.cc\	gra-
4c/	-ti-	4cc\	-ti-
=36-	=36-	=36-	=36-
4c/	-a	4cc\	-a
4r	.	4r	.
2r	.	2r	.
=37-	=37-	=37-	=37-
0r	.	0r	.
=38-	=38-	=38-	=38-
.	.	.	.
=39-	=39-	=39-	=39-
2r	.	2r	.
4c/	fal-	4cc\	fal-
4g\	-lax	4dd\	-lax
=40-	=40-	=40-	=40-
2.c/	gra-	2.cc\	gra-
4c/	-ti-	4cc\	-ti-
=41-	=41-	=41-	=41-
4g\	-a	4dd\	-a
4r	.	4r	.
2r	.	2r	.
=42-	=42-	=42-	=42-
0r	.	0r	.
=43-	=43-	=43-	=43-
.	.	.	.
=44-	=44-	=44-	=44-
1r	.	1r	.
=45||-	=45||-	=45||-	=45||-
*M3/2	*	*M3/2	*
2c/	Tu	2cc\	Tu
*custos:g	*	*	*
2c/	ſu-	2cc\	su-
!LO:LB:g=original	!	!	!
2g\	-per	2cc\	-per
=46-	=46-	=46-	=46-
!	!	!LO:TX:t=||:problem=powtórka taktów 22-28	!
2.c/	greſ-	2.cc\yy	gres-
4c/	-sa	4cc\yy	-sa
2G/	es	2b\yy	es
=47-	=47-	=47-	=47-
2c/	u-	2cc\yy	u-
2c/	-ni-	2cc\yy	-ni-
2g\	-uer-	2b\yy	-uer-
=48-	=48-	=48-	=48-
1.c	-sas	1.ccyy	-sas
=49-	=49-	=49-	=49-
2c/	Tu	2cc\yy	tu
2c/	ſu-	2cc\yy	su-
2f\	-per	2cc\yy	-per
=50-	=50-	=50-	=50-
2.c/	greſ-	2.cc\yy	gres-
4c/	-sa	4cc\yy	-sa
2c/	es	2cc\yy	es
=51-	=51-	=51-	=51-
2c/	u-	2cc\yy	u-
2c/	-ni-	2cc\yy	-ni-
2g\	-uers-	2b\yy	-uer-
=52-	=52-	=52-	=52-
1.c	-sas	1.ccyy	-sas
!	!	!LO:LB:g=original	!
=53||-	=53||-	=53||-	=53||-
*M2/2	*	*M2/2	*
*met(C|)	*	*met(C|)	*
2.g\	Mu-	2.b\	Mu-
*custos:g	*	*	*
4g\	-li-	4b\	-li-
!LO:LB:g=original	!	!	!
=54-	=54-	=54-	=54-
2g\	-er	2b\	-er
4c/	ti-	4cc\	ti-
4G/	-mens	4b\	-mens
=55-	=55-	=55-	=55-
2.c/	Do-	2.cc\	do-
4c/	-mi-	4cc\	-mi-
=56-	=56-	=56-	=56-
2g\	-num	2b\	-num
2r	.	2r	.
=57-	=57-	=57-	=57-
1r	.	1r	.
=58-	=58-	=58-	=58-
2r	.	2r	.
4c/	Mu-	4cc\	mu-
4c/	-li-	4cc\	-li-
=59-	=59-	=59-	=59-
2c/	-er	2cc\	-er
4g\	ti-	4b\	ti-
4c/	-mens	4cc\	-mens
=60-	=60-	=60-	=60-
2.f\	Do-	2.cc\	do-
4f\	-mi-	4cc\	-mi-
=61-	=61-	=61-	=61-
2c/	-num	2cc\	-num
2r	.	2r	.
=62-	=62-	=62-	=62-
1r	.	1r	.
=63-	=63-	=63-	=63-
2r	.	2r	.
4G/	mu-	4b\	mu-
4G/	-li-	4b\	-li-
=64-	=64-	=64-	=64-
2G/	-er	2b\	-er
4c/	ti-	4cc\	ti-
4G/	-mens	4b\	-mens
=65-	=65-	=65-	=65-
2.c/	Do-	2.cc\	do-
*custos:g	*	*custos:dd	*
4c/	-mi-	4cc\	-mi-
!LO:PB:g=original	!	!LO:LB:g=original	!
=66-	=66-	=66-	=66-
2g\	-num	2dd\	-num
2r	.	2r	.
=67-	=67-	=67-	=67-
1r	.	0r	.
=68-	=68-	=68-	=68-
2r	.	.	.
2g\	ip-	.	.
=69-	=69-	=69-	=69-
4c/	-sa	1r	.
4g\	lau-	.	.
4d\	-da-	.	.
4d\	-bi-	.	.
=70-	=70-	=70-	=70-
2G/	-tur	2r	.
2r	.	2cc\	ip-
=71-	=71-	=71-	=71-
1r	.	4a\	-sa
.	.	4a\	lau-
!	!	!LO:TX:b:t=P:problem=# below	!
.	.	4g#X/	-da-
.	.	4g#/	-bi-
=72-	=72-	=72-	=72-
!	!	!LO:TX:t=P:global:problem=oddech jako rozdzielacz słów	!
2r	.	2a,<\	-tur
2g\	ip-	2b\	ip-
=73-	=73-	=73-	=73-
4c/	-sa	4cc\	-sa
4g\	lau-	4b\	lau-
4d\	-da-	4a\	-da-
4d\	-bi-	4a\	-bi-
=74-	=74-	=74-	=74-
1g	-tur	1b	-tur
=75||-	=75||-	=75||-	=75||-
*M3/2	*	*M3/2	*
2c/	Tu	2cc\	Tu
2c/	ſu-	2cc\	su-
2g\	-per	2cc\	-per
=76-	=76-	=76-	=76-
!	!	!LO:TX:t=P:problem=powtórka taktów 22-28	!
2.c/	greſ-	2.cc\yy	gres-
4c/	-sa	4cc\yy	-sa
2G/	es	2b\yy	es
=77-	=77-	=77-	=77-
*custos:c	*	*	*
2c/	v-	2cc\yy	u-
!LO:LB:g=original	!	!	!
2c/	-ni-	2cc\yy	-ni-
2g\	-uer-	2b\yy	-uer-
=78-	=78-	=78-	=78-
1.c	-sas	1.ccyy	-sas
=79-	=79-	=79-	=79-
2c/	Tu	2cc\yy	tu
2c/	ſu-	2cc\yy	su-
2f\	-per	2cc\yy	-per
=80-	=80-	=80-	=80-
2.c/	greſ-	2.cc\yy	gres-
4c/	-sa	4cc\yy	-sa
2c/	es	2cc\yy	es
=81-	=81-	=81-	=81-
2c/	u-	2cc\yy	u-
2c/	-ni-	2cc\yy	-ni-
2g\	-uer-	2b\yy	-uer-
=82-	=82-	=82-	=82-
1.c	-sas	1.ccyy	-sas
=83||-	=83||-	=83||-	=83||-
*M2/2	*	*M2/2	*
*met(C|)	*	*met(C|)	*
2g\	Gus-	1r	.
2c/	-ta-	.	.
=84-	=84-	=84-	=84-
4g\	-uit	4r	.
4r	.	2cc\	et
2r	.	.	.
.	.	4b\	ui-
=85-	=85-	=85-	=85-
4r	.	4cc\	-dit
4A/	gus-	4r	.
2d\	-ta-	2r	.
=86-	=86-	=86-	=86-
*custos:G	*	*	*
4A/	-uit	4r	.
!LO:LB:g=original	!	!	!
4r	.	2dd\	et
2r	.	.	.
!	!	!LO:TX:b:t=P:problem=# below	!
.	.	4cc#X\	ui-
=87-	=87-	=87-	=87-
4r	.	4dd\	-dit
*	*	*custos:dd	*
4G/	gus-	4r	.
!	!	!LO:LB:g=original	!
2c/	-ta-	2r	.
=88-	=88-	=88-	=88-
4G/	-uit	4r	.
4r	.	4dd\	et
2r	.	2dd\	ui-
=89-	=89-	=89-	=89-
2r	.	2dd\	-dit
2d\	qui-	2r	.
=90-	=90-	=90-	=90-
2.g\	-a	00r	.
4f\	bo-	.	.
=91-	=91-	=91-	=91-
1e	-na	.	.
=92-	=92-	=92-	=92-
2d\	eſt	.	.
2G/	ne-	.	.
=93-	=93-	=93-	=93-
2d\	-go-	.	.
2G/	-ti-	.	.
=94-	=94-	=94-	=94-
2.c/	-a-	0r	.
4c/	-ti-	.	.
=95-	=95-	=95-	=95-
2B/	-o	.	.
2c/	e-	.	.
=96-	=96-	=96-	=96-
2G/	-ius	2r	.
2r	.	2dd\	non
=97-	=97-	=97-	=97-
00r	.	2dd\	ex
.	.	2.dd\	tin-
=98-	=98-	=98-	=98-
.	.	.	.
.	.	8ccny\L	.
.	.	8b\J	.
!	!	!LO:TX:b:t=P:problem=# below	!
.	.	2cc#X\	-gue-
=99-	=99-	=99-	=99-
.	.	2dd\	-tur
.	.	4gny/	in
.	.	4a\	.
=100-	=100-	=100-	=100-
.	.	1b	noc-
=101-	=101-	=101-	=101-
0r	.	2ccny\	-te
.	.	4b\	lu-
.	.	4cc\	.
=102-	=102-	=102-	=102-
.	.	2dd\	-cer-
.	.	2.dd\	-na
=103-	=103-	=103-	=103-
1r	.	.	.
.	.	8cc\L	.
.	.	8b\J	.
!	!	!LO:TX:b:t=P:problem=# below	!
.	.	2cc#X\	e-
=104-	=104-	=104-	=104-
2r	.	2dd\	-ius
2g\	lu-	2r	.
=105-	=105-	=105-	=105-
*custos:e	*	*	*
2g\	-cer-	0r	.
!LO:LB:g=original	!	!	!
2e\	-na	.	.
=106-	=106-	=106-	=106-
1d	e-	.	.
=107-	=107-	=107-	=107-
2G/	-ius	2r	.
2r	.	2dd\	non
=108-	=108-	=108-	=108-
0r	.	2dd\	ex-
*	*	*custos:c	*
.	.	2.dd\	-tin-
!	!	!LO:PB:g=original	!
=109-	=109-	=109-	=109-
.	.	.	.
.	.	8ccny\L	.
.	.	8b\J	.
!	!	!LO:TX:b:t=P:problem=# below	!
.	.	2cc#X\	-gue-
=110-	=110-	=110-	=110-
2r	.	2dd\	-tur
2c/	lu-	2r	.
=111-	=111-	=111-	=111-
2f\	-cer-	0r	.
2d\	-na	.	.
=112-	=112-	=112-	=112-
4c/	e-	.	.
4d\	.	.	.
4e\	.	.	.
4f\	.	.	.
=113-	=113-	=113-	=113-
2g\	-ius	2r	.
2r	.	2dd\	non
=114-	=114-	=114-	=114-
0r	.	2dd\	ex-
.	.	2.dd\	-tin-
=115-	=115-	=115-	=115-
.	.	.	.
.	.	8ccny\L	.
.	.	8b\J	.
!	!	!LO:TX:b:t=P:problem=# below	!
.	.	2cc#X\	-gue-
=116-	=116-	=116-	=116-
1r	.	1dd	-tur
=117||-	=117||-	=117||-	=117||-
*M3/2	*	*M3/2	*
2c/	Tu	2ccny\	Tu
2c/	ſu-	2cc\	su-
2g\	-per	2b\	-per
=118-	=118-	=118-	=118-
2.c/	greſ-	2.cc\	gres-
4c/	-sa	4cc\	-sa
2G/	es	2b,<\	es
=119-	=119-	=119-	=119-
2c/	u-	2cc\	u-
2c/	-ni-	2cc\	-ni-
2g\	-uer-	2b\	-uer-
=120-	=120-	=120-	=120-
*custos:c	*	*	*
1.c	-sas	1.cc	-sas
!LO:LB:g=original	!	!	!
=121-	=121-	=121-	=121-
2c/	Tu	2cc\	tu
*	*	*custos:cc	*
2c/	ſu-	2cc\	su-
!	!	!LO:LB:g=original	!
2f\	-per	2cc\	-per
=122-	=122-	=122-	=122-
2.c/	greſ-	2.cc\	gres-
4c/	-sa	4cc\	-sa
2c/	es	2cc,<\	es
=123-	=123-	=123-	=123-
2c/	u-	2cc\	u-
2c/	-ni-	2cc\	-ni-
2g\	-uer-	2b\	-uer-
=124-	=124-	=124-	=124-
1.c	-sas	1.cc	-sas
=125||-	=125||-	=125||-	=125||-
*M2/2	*	*M2/2	*
*met(C|)	*	*met(C|)	*
1c	U-	0cc	u-
=126-	=126-	=126-	=126-
1f	-ni-	.	.
=127-	=127-	=127-	=127-
4c/	-uer-	2cc\	-ni-
4d\	.	.	.
4e\	.	2.cc\	-uer-
4f\	.	.	.
=128-	=128-	=128-	=128-
1g	.	.	.
.	.	8b\L	.
.	.	8a\J	.
.	.	2b\	.
=129-	=129-	=129-	=129-
0cl	-sas	0ccl	-sas?
=130-	=130-	=130-	=130-
.	.	.	.
==	==	==	==
*-	*-	*-	*-
!!!system-decoration: s1,s2
!!!RDF**kern: < = below
!!!RDF**kern: l = terminal long
!!!ENC: Andrzej Gręziak
!!!END: 2021-10-02
!!!ENC: Marta Lawrence
!!!END: 2021-10-08
